X:107
T: Jaeger und Graserin
N: Q0154A
O: Osteuropa, Ungarn, Wessprim, Veszpremfajsz
R: Ballade, Verfuehrung, Verlassen
M: 3/4
L: 1/16
K: D
D4 | D4F4A2A2 | F4D4F4 | A2B2A4A2B2 | G4z4
c4 | c2d2e4d4 | c2B2A2G2G2A2 | F8
A2B2 | d2c2d2A2d4 | f8d4 | d4B4
d4 | c4d4A3A | B4c4c4 | d8

@@@ Tune index: 1710
